X: 11
T: O'Keeffe's
Z: tziguk
S: https://thesession.org/tunes/53#setting53507
R: slide
M: 12/8
L: 1/8
K: Ador
|:A2e e2d BAB d2B|A2e e2d B2G GFG|
A2e e2d BAB d3|1BAB d2e B2A A2G:|2BAB d2e B2A A2d||
|:e2a a2b a2g e2d|e2aa2b a2g e2f|
g3 gfe dBA G2A|1BAB d2e B2A A2d:|2BAB d2e B2A A2G||

